doc/src/img/full_logo.svg

<?xml version="1.0" encoding="UTF-8" standalone="no"?>
<svg
   width="2010"
   height="664"
   xml:space="preserve"
   overflow="hidden"
   version="1.1"
   id="svg7"
   sodipodi:docname="full_logo.svg"
   inkscape:version="1.3 (0e150ed, 2023-07-21)"
   xmlns:inkscape="http://www.inkscape.org/namespaces/inkscape"
   xmlns:sodipodi="http://sodipodi.sourceforge.net/DTD/sodipodi-0.dtd"
   xmlns="http://www.w3.org/2000/svg"
   xmlns:svg="http://www.w3.org/2000/svg"><sodipodi:namedview
     id="namedview7"
     pagecolor="#ffffff"
     bordercolor="#000000"
     borderopacity="0.25"
     inkscape:showpageshadow="2"
     inkscape:pageopacity="0.0"
     inkscape:pagecheckerboard="0"
     inkscape:deskcolor="#d1d1d1"
     inkscape:zoom="0.37291031"
     inkscape:cx="709.28584"
     inkscape:cy="414.30874"
     inkscape:window-width="1792"
     inkscape:window-height="1092"
     inkscape:window-x="0"
     inkscape:window-y="28"
     inkscape:window-maximized="0"
     inkscape:current-layer="svg7" /><defs
     id="defs3"><clipPath
       id="clip0"><rect
         x="474"
         y="495"
         width="668"
         height="668"
         id="rect1" /></clipPath><clipPath
       id="clip1"><rect
         x="474"
         y="495"
         width="668"
         height="668"
         id="rect2" /></clipPath><clipPath
       id="clip2"><rect
         x="474"
         y="495"
         width="668"
         height="668"
         id="rect3" /></clipPath></defs><g
     transform="matrix(0.97828663,0,0,0.97828663,-472.53975,-479.25188)"
     id="g7"><g
       id="g6"><g
         clip-path="url(#clip0)"
         id="g5"><g
           clip-path="url(#clip1)"
           id="g4"><g
             clip-path="url(#clip2)"
             id="g3"><path
               d="m 804.04,1162.44 c -5.177,-1.01 -13.053,-9.57 -17.882,-19.44 -5.531,-11.3 -7.104,-18.76 -4.192,-19.88 1.165,-0.45 6.911,1.82 14.602,5.77 14.668,7.52 20.049,8.65 27.527,5.79 2.873,-1.09 5.762,-1.66 6.42,-1.25 4.973,3.07 -7.275,23.41 -16.83,27.94 -3.955,1.88 -4.91,1.99 -9.645,1.07 z m -57.301,-7.9 c -24.465,-7.78 -53.343,-27.42 -69.244,-47.11 -15.541,-19.24 -23.135,-35.59 -30.958,-66.65 -6.736,-26.75 -13.375,-41.787 -25.534,-57.833 -8.865,-11.697 -29.406,-26.563 -45.605,-33.009 -15.996,-6.363 -23.875,-7.565 -49.773,-7.595 -13.234,-0.014 -26.166,-0.518 -28.737,-1.112 -5.814,-1.346 -8.77,-4.857 -8.749,-10.384 0.021,-5.224 12.753,-43.21 34.329,-102.423 4.216,-11.569 13.167,-36.287 19.891,-54.927 6.725,-18.64 14.672,-40.465 17.662,-48.5 2.99,-8.034 7.185,-19.604 9.322,-25.71 5.412,-15.462 19.968,-55.132 23.584,-64.277 14.617,-36.965 39.102,-65.92 76.339,-90.274 28.69,-18.763 61.32,-30.56 94.662,-34.222 6.249,-0.686 8.331,-1.495 11.738,-4.562 9.572,-8.617 25.412,-12.702 39.732,-10.247 8.998,1.543 18.297,5.716 24.175,10.848 2.077,1.812 5.494,3.542 7.598,3.844 2.101,0.303 8.294,1.163 13.758,1.913 36.049,4.943 74.936,22.337 104.542,46.758 11.136,9.186 28.139,26.699 36.289,37.376 11.34,14.857 15.73,24.57 33.32,73.626 5.64,15.748 13.44,37.31 17.33,47.915 3.89,10.606 13.37,36.901 21.07,58.434 7.71,21.532 18.56,51.772 24.14,67.197 18.24,50.501 20.58,57.104 25.2,71.138 4.84,14.71 5.46,19.089 3.1,21.897 -4.19,5.007 -4.87,5.111 -36.99,5.795 l -31.08,0.662 -11.81,4.078 c -29.56,10.204 -51.197,29.074 -64.834,56.544 -4.466,8.98 -7.021,16.54 -11.076,32.72 -2.899,11.57 -6.626,24.98 -8.286,29.8 -10.391,30.21 -35.808,58.94 -67.735,76.59 -11.944,6.6 -35.278,15.03 -38.337,13.86 -3.146,-1.21 -2.081,-4.06 3.27,-8.77 6.329,-5.57 11.81,-13.97 15.788,-24.21 l 3.036,-7.8 0.601,-84.15 0.601,-84.14 2.769,-6.7 c 3.497,-8.45 12.188,-17.622 20.261,-21.379 l 6.162,-2.869 91.94,-0.014 c 50.56,-0.003 92.74,-0.32 93.72,-0.698 1.52,-0.584 1.07,-2.695 -2.91,-13.734 -2.59,-7.174 -7.26,-20.143 -10.39,-28.821 -3.13,-8.677 -8.66,-23.928 -12.29,-33.891 -3.64,-9.963 -8.89,-24.687 -11.68,-32.722 -2.79,-8.034 -7.51,-21.445 -10.5,-29.801 -3,-8.356 -6.15,-17.296 -7.01,-19.867 -1.57,-4.71 -6.08,-17.119 -16.77,-46.163 -3.19,-8.677 -8.77,-23.928 -12.4,-33.891 -15.424,-42.309 -17.138,-46.506 -22.054,-54.019 -5.481,-8.37 -10.441,-7.415 -22.114,4.257 -8.103,8.102 -13.133,19.552 -17.883,40.703 -2.201,9.803 -4.004,18.902 -4.008,20.22 -0.003,1.318 -0.638,3.027 -1.409,3.798 -1.076,1.074 -32.475,1.402 -134.218,1.402 -125.032,0 -132.916,-0.12 -134.587,-2.045 -0.977,-1.125 -2.662,-7.041 -3.745,-13.147 -5.333,-30.068 -15.283,-49.686 -29.392,-57.955 -2.806,-1.644 -6.249,-2.819 -7.652,-2.61 -3.771,0.56 -10.759,12.456 -16.796,28.594 -13.182,35.235 -40.339,109.066 -40.339,109.666 0,0.368 -6.632,18.93 -14.738,41.248 -33.378,91.898 -41.666,115.809 -40.866,117.893 0.498,1.299 16.705,1.573 93.341,1.573 104.323,0 99.046,-0.427 109.322,8.811 3.659,3.29 6.868,7.702 9.064,12.458 l 3.4,7.362 0.611,82.391 c 0.55,74.08 0.819,83.09 2.666,89.31 3.142,10.58 8.832,20.3 16.882,28.85 4.018,4.26 7.305,8.61 7.305,9.66 0,2.68 -5.625,2.34 -16.021,-0.96 z M 709.94,1027.97 c -0.326,-69.625 -0.519,-75.968 -2.412,-79.431 -1.131,-2.068 -3.069,-4.306 -4.305,-4.967 -1.427,-0.762 -17.772,-1.196 -44.69,-1.179 l -42.441,0.023 5.259,4.269 c 7.61,6.179 18.05,17.137 24.753,25.982 7.762,10.24 17.811,30.923 21.332,43.913 1.569,5.79 4.734,17.62 7.035,26.3 6.159,23.22 15.47,41.49 27.781,54.51 3.256,3.44 6.397,6.25 6.981,6.25 0.629,0 0.917,-30.82 0.707,-75.67 z m 203.173,69.54 c 6.64,-7.05 11.162,-13.49 17.041,-24.25 5.404,-9.89 7.982,-17.53 13.751,-40.72 9.028,-36.313 18.293,-53.708 40.397,-75.855 L 998.59,942.37 h -42.902 -42.902 l -3.43,3.58 -3.434,3.581 -0.701,76.179 c -0.384,41.9 -0.485,76.58 -0.221,77.06 0.945,1.74 2.432,0.77 8.113,-5.26 z M 709.001,664.268 c 0,-5.713 -4.242,-25.805 -7.494,-35.49 -5.935,-17.68 -15.15,-32.981 -25.444,-42.245 -10.374,-9.336 -10.318,-9.337 -19.812,0.157 l -8.21,8.211 6.586,3.332 c 15.268,7.725 27.643,25.858 36.266,53.138 2.337,7.392 4.458,14.097 4.714,14.901 0.298,0.936 2.786,1.461 6.929,1.461 6.387,0 6.465,-0.044 6.465,-3.465 z m 39.214,-0.333 c -0.344,-2.089 -1.196,-8.243 -1.894,-13.675 -3.726,-29.034 -12.483,-60.512 -21.784,-78.302 -6.036,-11.546 -12.487,-19.923 -15.341,-19.923 -1.604,0 -16.951,8.186 -18.786,10.02 -0.268,0.268 2.656,3.777 6.498,7.797 20.657,21.615 32.342,49.356 39.628,94.083 0.602,3.696 0.776,3.798 6.462,3.798 h 5.844 z m 92.981,-11.395 c 2.99,-22.361 5.438,-35.376 9.813,-52.162 5.201,-19.947 9.335,-31.115 17.198,-46.44 3.524,-6.871 6.055,-12.709 5.624,-12.975 -0.43,-0.266 -7.585,-1.613 -15.898,-2.993 -8.317,-1.381 -16.172,-2.711 -17.458,-2.957 -1.286,-0.245 -3.544,-2.578 -5.017,-5.183 -5.447,-9.617 -17.308,-14.846 -31.366,-13.829 -10.802,0.782 -18.669,5.418 -26.965,15.892 -1.723,2.175 -4.593,3.066 -16.12,5.002 -21,3.528 -21.621,3.668 -21.621,4.891 0,0.622 1.822,4.103 4.049,7.735 12.506,20.396 23.32,55.938 28.677,94.254 0.719,5.142 1.857,12.645 2.528,16.672 l 1.222,7.323 31.692,-0.311 31.692,-0.311 z M 797.98,580.82 c -9.367,-3.39 -17.61,-14.262 -17.984,-23.723 -0.287,-7.253 2.572,-15.184 7.482,-20.763 5.834,-6.627 12.577,-9.299 21.791,-8.632 12.662,0.916 22.164,9.837 25.03,23.501 1.156,5.503 1.049,7.167 -0.768,11.918 -5.631,14.75 -21.657,22.728 -35.551,17.699 z m 82.648,71.113 c 3.304,-20.137 7.145,-33.357 13.741,-47.3 6.72,-14.214 10.868,-20.644 20.611,-31.962 4.339,-5.04 7.886,-9.619 7.886,-10.174 0,-1.499 -15.818,-10.462 -18.464,-10.462 -1.519,0 -4.302,2.927 -8.346,8.779 -7.011,10.139 -11.363,19.274 -16.256,34.122 -5.187,15.744 -13.003,56.806 -13.023,68.414 l -0.01,4.383 h 5.635 5.631 z m 39.907,13.755 c 0.01,-3.648 10.126,-31.351 14.468,-39.617 6.493,-12.354 14.393,-21.35 23.33,-26.567 4.276,-2.495 7.776,-4.886 7.776,-5.313 0,-0.427 -3.744,-4.126 -8.317,-8.22 l -8.313,-7.444 -4.035,2.172 c -11.002,5.926 -25.641,27.438 -31.903,46.883 -3.621,11.242 -8.651,37.314 -7.545,39.103 0.357,0.576 3.77,1.048 7.591,1.048 5.832,0 6.944,-0.328 6.948,-2.045 z M 808.164,1120.67 c -7.436,-2.84 -28.026,-15.12 -29.278,-17.46 -1.485,-2.78 -3.307,-16.81 -2.467,-19 1.13,-2.94 5.972,-1.65 20.328,5.41 16.991,8.36 20.425,8.74 30.278,3.32 9.769,-5.37 11.068,-4.48 10.113,6.94 -0.845,10.08 -2.208,12.61 -9.703,18.04 -5.714,4.14 -12.949,5.17 -19.271,2.75 z m -1.109,-40.27 c -9.655,-3.78 -29.346,-14.68 -30.997,-17.16 -0.944,-1.42 -1.734,-6.2 -1.905,-11.53 -0.402,-12.56 0.274,-12.84 14.82,-6.04 10.294,4.81 12.412,5.39 19.829,5.39 4.565,0.01 10.32,0.57 12.792,1.26 4.014,1.11 4.966,0.92 9.031,-1.76 2.498,-1.66 5.291,-3.01 6.206,-3.01 2.832,0 4.161,6.23 3.043,14.26 -1.173,8.4 -3.404,10.93 -15.194,17.21 -7.712,4.11 -10.154,4.3 -17.625,1.38 z m 3.036,-39.85 c -5.351,-1.27 -17.352,-6.6 -27.026,-12.01 -9.641,-5.39 -9.901,-5.85 -10.186,-17.86 -0.278,-11.721 0.378,-11.821 19.869,-2.99 20.038,9.08 22.553,9.26 35.075,2.5 4.923,-2.65 10.047,-4.67 11.386,-4.48 2.281,0.33 2.421,1.01 2.184,10.75 -0.294,12.32 -1.149,13.61 -13.029,19.76 -8.684,4.49 -13.123,5.54 -18.273,4.33 z m -4.675,-41.334 c -2.571,-0.855 -11.135,-4.803 -19.031,-8.777 -14.971,-7.532 -16.613,-9.152 -16.613,-16.369 0,-6.787 1.997,-7.743 16.19,-7.743 12.3,0 13.019,0.137 16.163,3.083 5.336,4.997 7.752,5.144 12.739,0.765 4.275,-3.754 4.646,-3.848 15.107,-3.848 13.416,0 14.595,0.799 14.595,9.86 0,8.053 -1.65,9.913 -16.089,18.16 -10.634,6.073 -16.008,7.203 -23.061,4.869 z m -39.032,-45.601 c -0.915,-1.102 -0.985,-2.538 -0.222,-4.545 5.006,-13.167 29.9,-23.858 53.288,-22.889 11.329,0.47 11.927,-0.147 6.309,-6.547 -4.486,-5.107 -14.636,-8.5 -28.658,-9.579 -11.566,-0.888 -13.726,-2.395 -10.203,-7.114 3.774,-5.057 10.337,-9.766 15.165,-10.889 2.487,-0.577 13.726,-1.082 24.975,-1.125 l 20.451,-0.077 -4.092,-2.254 c -5.785,-3.19 -28.497,-10.501 -32.625,-10.501 -5.437,0 -9.446,-1.981 -9.446,-4.666 0,-2.719 3.536,-5.167 16.36,-11.32 11.343,-5.444 14.025,-7.909 14.025,-12.882 0,-3.126 -0.602,-4.145 -2.996,-5.053 -4.192,-1.594 -30.646,-1.427 -37.858,0.237 -5.121,1.182 -6.236,1.115 -7.817,-0.465 -1.679,-1.68 -1.528,-2.662 1.691,-11.018 6.169,-16.022 9.583,-37.51 9.583,-60.323 0,-15.834 -1.509,-20.286 -8.958,-26.426 -7.863,-6.481 -11.9,-7.16 -42.379,-7.132 -30.747,0.026 -31.735,0.232 -43.61,8.949 -9.027,6.626 -9.579,5.735 -9.973,-16.104 -0.286,-15.883 -0.09,-18.152 1.684,-19.45 1.581,-1.156 27.185,-1.468 120.322,-1.468 105.998,0 118.503,0.191 120.15,1.836 1.52,1.52 1.834,5.097 1.817,20.744 -0.01,10.399 -0.478,19.636 -1.042,20.526 -1.523,2.405 -5.555,0.943 -13.634,-4.94 -13.791,-10.045 -11.289,-9.534 -46.66,-9.534 -30.324,0 -31.743,0.101 -36.386,2.584 -2.658,1.422 -6.459,4.21 -8.443,6.197 -5.872,5.869 -6.493,10.521 -4.342,32.49 1.035,10.558 2.318,19.975 2.849,20.927 0.738,1.32 1.743,0.404 4.248,-3.869 4.128,-7.042 8.35,-10.998 11.737,-10.998 1.446,0 6.76,1.972 11.81,4.383 8.744,4.175 9.73,4.38 20.865,4.339 9.409,-0.035 12.749,-0.53 17.141,-2.547 5.417,-2.486 14.997,-10.218 14.997,-12.104 0,-0.54 -15.294,-1.136 -33.988,-1.324 -31.122,-0.314 -34.115,-0.52 -35.521,-2.443 -2.231,-3.056 -1.002,-6.051 5.341,-12.989 10.053,-11 26.065,-15.656 40.838,-11.871 9.205,2.358 16.255,6.182 24.722,13.409 3.658,3.123 10.234,7.667 14.609,10.098 4.376,2.431 8.371,4.992 8.875,5.69 2.662,3.678 -4.93,43.567 -12.589,66.129 -9.051,26.66 -22.949,52.118 -39.235,71.874 -8.45,10.247 -27.09,28.614 -33.109,32.618 l -4.546,3.026 h -37.092 c -30.089,0 -37.344,-0.304 -38.428,-1.61 z m -59.71,-175.17 c -1.601,-0.825 -3.087,-2.411 -3.301,-3.523 -0.641,-3.33 12.188,-15.104 21.38,-19.621 7.238,-3.557 9.215,-4.008 17.555,-4.008 8.311,0 10.324,0.455 17.401,3.939 8.633,4.25 15.893,10.838 18.271,16.58 1.284,3.098 1.218,3.862 -0.478,5.56 -1.736,1.737 -5.841,2.004 -34.942,2.271 -25.05,0.23 -33.675,-0.058 -35.886,-1.198 z"
               fill="#3061f3"
               fill-rule="nonzero"
               fill-opacity="1"
               id="path3" /></g></g></g><text
         fill="#3061f3"
         fill-opacity="1"
         font-family="'Source Sans Pro', 'Source Sans Pro_MSFontService', sans-serif"
         font-style="normal"
         font-variant="normal"
         font-weight="400"
         font-stretch="normal"
         font-size="330px"
         text-anchor="start"
         direction="ltr"
         writing-mode="lr-tb"
         unicode-bidi="normal"
         text-decoration="none"
         transform="translate(1158.55,976)"
         id="text5"
         style="text-decoration:none;text-decoration-line:none">RAMSES</text></g></g></svg>

<svg width="2030" height="779" xmlns="http://www.w3.org/2000/svg" xmlns:xlink="http://www.w3.org/1999/xlink" xml:space="preserve" overflow="hidden"><defs><clipPath id="clip0"><rect x="474" y="495" width="668" height="668"/></clipPath><clipPath id="clip1"><rect x="474" y="495" width="668" height="668"/></clipPath><clipPath id="clip2"><rect x="474" y="495" width="668" height="668"/></clipPath></defs><g transform="translate(-472 -495)"><g><g clip-path="url(#clip0)"><g clip-path="url(#clip1)"><g clip-path="url(#clip2)"><path d="M804.04 1162.44C798.863 1161.43 790.987 1152.87 786.158 1143 780.627 1131.7 779.054 1124.24 781.966 1123.12 783.131 1122.67 788.877 1124.94 796.568 1128.89 811.236 1136.41 816.617 1137.54 824.095 1134.68 826.968 1133.59 829.857 1133.02 830.515 1133.43 835.488 1136.5 823.24 1156.84 813.685 1161.37 809.73 1163.25 808.775 1163.36 804.04 1162.44ZM746.739 1154.54C722.274 1146.76 693.396 1127.12 677.495 1107.43 661.954 1088.19 654.36 1071.84 646.537 1040.78 639.801 1014.03 633.162 998.993 621.003 982.947 612.138 971.25 591.597 956.384 575.398 949.938 559.402 943.575 551.523 942.373 525.625 942.343 512.391 942.329 499.459 941.825 496.888 941.231 491.074 939.885 488.118 936.374 488.139 930.847 488.16 925.623 500.892 887.637 522.468 828.424 526.684 816.855 535.635 792.137 542.359 773.497 549.084 754.857 557.031 733.032 560.021 724.997 563.011 716.963 567.206 705.393 569.343 699.287 574.755 683.825 589.311 644.155 592.927 635.01 607.544 598.045 632.029 569.09 669.266 544.736 697.956 525.973 730.586 514.176 763.928 510.514 770.177 509.828 772.259 509.019 775.666 505.952 785.238 497.335 801.078 493.25 815.398 495.705 824.396 497.248 833.695 501.421 839.573 506.553 841.65 508.365 845.067 510.095 847.171 510.397 849.272 510.7 855.465 511.56 860.929 512.31 896.978 517.253 935.865 534.647 965.471 559.068 976.607 568.254 993.61 585.767 1001.76 596.444 1013.1 611.301 1017.49 621.014 1035.08 670.07 1040.72 685.818 1048.52 707.38 1052.41 717.985 1056.3 728.591 1065.78 754.886 1073.48 776.419 1081.19 797.951 1092.04 828.191 1097.62 843.616 1115.86 894.117 1118.2 900.72 1122.82 914.754 1127.66 929.464 1128.28 933.843 1125.92 936.651 1121.73 941.658 1121.05 941.762 1088.93 942.446L1057.85 943.108 1046.04 947.186C1016.48 957.39 994.843 976.26 981.206 1003.73 976.74 1012.71 974.185 1020.27 970.13 1036.45 967.231 1048.02 963.504 1061.43 961.844 1066.25 951.453 1096.46 926.036 1125.19 894.109 1142.84 882.165 1149.44 858.831 1157.87 855.772 1156.7 852.626 1155.49 853.691 1152.64 859.042 1147.93 865.371 1142.36 870.852 1133.96 874.83 1123.72L877.866 1115.92 878.467 1031.77 879.068 947.63 881.837 940.93C885.334 932.48 894.025 923.308 902.098 919.551L908.26 916.682 1000.2 916.668C1050.76 916.665 1092.94 916.348 1093.92 915.97 1095.44 915.386 1094.99 913.275 1091.01 902.236 1088.42 895.062 1083.75 882.093 1080.62 873.415 1077.49 864.738 1071.96 849.487 1068.33 839.524 1064.69 829.561 1059.44 814.837 1056.65 806.802 1053.86 798.768 1049.14 785.357 1046.15 777.001 1043.15 768.645 1040 759.705 1039.14 757.134 1037.57 752.424 1033.06 740.015 1022.37 710.971 1019.18 702.294 1013.6 687.043 1009.97 677.08 994.546 634.771 992.832 630.574 987.916 623.061 982.435 614.691 977.475 615.646 965.802 627.318 957.699 635.42 952.669 646.87 947.919 668.021 945.718 677.824 943.915 686.923 943.911 688.241 943.908 689.559 943.273 691.268 942.502 692.039 941.426 693.113 910.027 693.441 808.284 693.441 683.252 693.441 675.368 693.321 673.697 691.396 672.72 690.271 671.035 684.355 669.952 678.249 664.619 648.181 654.669 628.563 640.56 620.294 637.754 618.65 634.311 617.475 632.908 617.684 629.137 618.244 622.149 630.14 616.112 646.278 602.93 681.513 575.773 755.344 575.773 755.944 575.773 756.312 569.141 774.874 561.035 797.192 527.657 889.09 519.369 913.001 520.169 915.085 520.667 916.384 536.874 916.658 613.51 916.658 717.833 916.658 712.556 916.231 722.832 925.469 726.491 928.759 729.7 933.171 731.896 937.927L735.296 945.289 735.907 1027.68C736.457 1101.76 736.726 1110.77 738.573 1116.99 741.715 1127.57 747.405 1137.29 755.455 1145.84 759.473 1150.1 762.76 1154.45 762.76 1155.5 762.76 1158.18 757.135 1157.84 746.739 1154.54ZM709.94 1027.97C709.614 958.345 709.421 952.002 707.528 948.539 706.397 946.471 704.459 944.233 703.223 943.572 701.796 942.81 685.451 942.376 658.533 942.393L616.092 942.416 621.351 946.685C628.961 952.864 639.401 963.822 646.104 972.667 653.866 982.907 663.915 1003.59 667.436 1016.58 669.005 1022.37 672.17 1034.2 674.471 1042.88 680.63 1066.1 689.941 1084.37 702.252 1097.39 705.508 1100.83 708.649 1103.64 709.233 1103.64 709.862 1103.64 710.15 1072.82 709.94 1027.97ZM913.113 1097.51C919.753 1090.46 924.275 1084.02 930.154 1073.26 935.558 1063.37 938.136 1055.73 943.905 1032.54 952.933 996.227 962.198 978.832 984.302 956.685L998.59 942.37 955.688 942.37 912.786 942.37 909.356 945.95 905.922 949.531 905.221 1025.71C904.837 1067.61 904.736 1102.29 905 1102.77 905.945 1104.51 907.432 1103.54 913.113 1097.51ZM709.001 664.268C709.001 658.555 704.759 638.463 701.507 628.778 695.572 611.098 686.357 595.797 676.063 586.533 665.689 577.197 665.745 577.196 656.251 586.69L648.041 594.901 654.627 598.233C669.895 605.958 682.27 624.091 690.893 651.371 693.23 658.763 695.351 665.468 695.607 666.272 695.905 667.208 698.393 667.733 702.536 667.733 708.923 667.733 709.001 667.689 709.001 664.268ZM748.215 663.935C747.871 661.846 747.019 655.692 746.321 650.26 742.595 621.226 733.838 589.748 724.537 571.958 718.501 560.412 712.05 552.035 709.196 552.035 707.592 552.035 692.245 560.221 690.41 562.055 690.142 562.323 693.066 565.832 696.908 569.852 717.565 591.467 729.25 619.208 736.536 663.935 737.138 667.631 737.312 667.733 742.998 667.733L748.842 667.733ZM841.196 652.54C844.186 630.179 846.634 617.164 851.009 600.378 856.21 580.431 860.344 569.263 868.207 553.938 871.731 547.067 874.262 541.229 873.831 540.963 873.401 540.697 866.246 539.35 857.933 537.97 849.616 536.589 841.761 535.259 840.475 535.013 839.189 534.768 836.931 532.435 835.458 529.83 830.011 520.213 818.15 514.984 804.092 516.001 793.29 516.783 785.423 521.419 777.127 531.893 775.404 534.068 772.534 534.959 761.007 536.895 740.007 540.423 739.386 540.563 739.386 541.786 739.386 542.408 741.208 545.889 743.435 549.521 755.941 569.917 766.755 605.459 772.112 643.775 772.831 648.917 773.969 656.42 774.64 660.447L775.862 667.77 807.554 667.459 839.246 667.148ZM797.98 580.82C788.613 577.43 780.37 566.558 779.996 557.097 779.709 549.844 782.568 541.913 787.478 536.334 793.312 529.707 800.055 527.035 809.269 527.702 821.931 528.618 831.433 537.539 834.299 551.203 835.455 556.706 835.348 558.37 833.531 563.121 827.9 577.871 811.874 585.849 797.98 580.82ZM880.628 651.933C883.932 631.796 887.773 618.576 894.369 604.633 901.089 590.419 905.237 583.989 914.98 572.671 919.319 567.631 922.866 563.052 922.866 562.497 922.866 560.998 907.048 552.035 904.402 552.035 902.883 552.035 900.1 554.962 896.056 560.814 889.045 570.953 884.693 580.088 879.8 594.936 874.613 610.68 866.797 651.742 866.777 663.35L866.767 667.733 872.402 667.733 878.033 667.733ZM920.535 665.688C920.545 662.04 930.661 634.337 935.003 626.071 941.496 613.717 949.396 604.721 958.333 599.504 962.609 597.009 966.109 594.618 966.109 594.191 966.109 593.764 962.365 590.065 957.792 585.971L949.479 578.527 945.444 580.699C934.442 586.625 919.803 608.137 913.541 627.582 909.92 638.824 904.89 664.896 905.996 666.685 906.353 667.261 909.766 667.733 913.587 667.733 919.419 667.733 920.531 667.405 920.535 665.688ZM808.164 1120.67C800.728 1117.83 780.138 1105.55 778.886 1103.21 777.401 1100.43 775.579 1086.4 776.419 1084.21 777.549 1081.27 782.391 1082.56 796.747 1089.62 813.738 1097.98 817.172 1098.36 827.025 1092.94 836.794 1087.57 838.093 1088.46 837.138 1099.88 836.293 1109.96 834.93 1112.49 827.435 1117.92 821.721 1122.06 814.486 1123.09 808.164 1120.67ZM807.055 1080.4C797.4 1076.62 777.709 1065.72 776.058 1063.24 775.114 1061.82 774.324 1057.04 774.153 1051.71 773.751 1039.15 774.427 1038.87 788.973 1045.67 799.267 1050.48 801.385 1051.06 808.802 1051.06 813.367 1051.07 819.122 1051.63 821.594 1052.32 825.608 1053.43 826.56 1053.24 830.625 1050.56 833.123 1048.9 835.916 1047.55 836.831 1047.55 839.663 1047.55 840.992 1053.78 839.874 1061.81 838.701 1070.21 836.47 1072.74 824.68 1079.02 816.968 1083.13 814.526 1083.32 807.055 1080.4ZM810.091 1040.55C804.74 1039.28 792.739 1033.95 783.065 1028.54 773.424 1023.15 773.164 1022.69 772.879 1010.68 772.601 998.959 773.257 998.859 792.748 1007.69 812.786 1016.77 815.301 1016.95 827.823 1010.19 832.746 1007.54 837.87 1005.52 839.209 1005.71 841.49 1006.04 841.63 1006.72 841.393 1016.46 841.099 1028.78 840.244 1030.07 828.364 1036.22 819.68 1040.71 815.241 1041.76 810.091 1040.55ZM805.416 999.216C802.845 998.361 794.281 994.413 786.385 990.439 771.414 982.907 769.772 981.287 769.772 974.07 769.772 967.283 771.769 966.327 785.962 966.327 798.262 966.327 798.981 966.464 802.125 969.41 807.461 974.407 809.877 974.554 814.864 970.175 819.139 966.421 819.51 966.327 829.971 966.327 843.387 966.327 844.566 967.126 844.566 976.187 844.566 984.24 842.916 986.1 828.477 994.347 817.843 1000.42 812.469 1001.55 805.416 999.216ZM766.384 953.615C765.469 952.513 765.399 951.077 766.162 949.07 771.168 935.903 796.062 925.212 819.45 926.181 830.779 926.651 831.377 926.034 825.759 919.634 821.273 914.527 811.123 911.134 797.101 910.055 785.535 909.167 783.375 907.66 786.898 902.941 790.672 897.884 797.235 893.175 802.063 892.052 804.55 891.475 815.789 890.97 827.038 890.927L847.489 890.85 843.397 888.596C837.612 885.406 814.9 878.095 810.772 878.095 805.335 878.095 801.326 876.114 801.326 873.429 801.326 870.71 804.862 868.262 817.686 862.109 829.029 856.665 831.711 854.2 831.711 849.227 831.711 846.101 831.109 845.082 828.715 844.174 824.523 842.58 798.069 842.747 790.857 844.411 785.736 845.593 784.621 845.526 783.04 843.946 781.361 842.266 781.512 841.284 784.731 832.928 790.9 816.906 794.314 795.418 794.314 772.605 794.314 756.771 792.805 752.319 785.356 746.179 777.493 739.698 773.456 739.019 742.977 739.047 712.23 739.073 711.242 739.279 699.367 747.996 690.34 754.622 689.788 753.731 689.394 731.892 689.108 716.009 689.304 713.74 691.078 712.442 692.659 711.286 718.263 710.974 811.4 710.974 917.398 710.974 929.903 711.165 931.55 712.81 933.07 714.33 933.384 717.907 933.367 733.554 933.357 743.953 932.889 753.19 932.325 754.08 930.802 756.485 926.77 755.023 918.691 749.14 904.9 739.095 907.402 739.606 872.031 739.606 841.707 739.606 840.288 739.707 835.645 742.19 832.987 743.612 829.186 746.4 827.202 748.387 821.33 754.256 820.709 758.908 822.86 780.877 823.895 791.435 825.178 800.852 825.709 801.804 826.447 803.124 827.452 802.208 829.957 797.935 834.085 790.893 838.307 786.937 841.694 786.937 843.14 786.937 848.454 788.909 853.504 791.32 862.248 795.495 863.234 795.7 874.369 795.659 883.778 795.624 887.118 795.129 891.51 793.112 896.927 790.626 906.507 782.894 906.507 781.008 906.507 780.468 891.213 779.872 872.519 779.684 841.397 779.37 838.404 779.164 836.998 777.241 834.767 774.185 835.996 771.19 842.339 764.252 852.392 753.252 868.404 748.596 883.177 752.381 892.382 754.739 899.432 758.563 907.899 765.79 911.557 768.913 918.133 773.457 922.508 775.888 926.884 778.319 930.879 780.88 931.383 781.578 934.045 785.256 926.453 825.145 918.794 847.707 909.743 874.367 895.845 899.825 879.559 919.581 871.109 929.828 852.469 948.195 846.45 952.199L841.904 955.225 804.812 955.225C774.723 955.225 767.468 954.921 766.384 953.615ZM706.674 778.445C705.073 777.62 703.587 776.034 703.373 774.922 702.732 771.592 715.561 759.818 724.753 755.301 731.991 751.744 733.968 751.293 742.308 751.293 750.619 751.293 752.632 751.748 759.709 755.232 768.342 759.482 775.602 766.07 777.98 771.812 779.264 774.91 779.198 775.674 777.502 777.372 775.766 779.109 771.661 779.376 742.56 779.643 717.51 779.873 708.885 779.585 706.674 778.445Z" fill="#3061F3" fill-rule="nonzero" fill-opacity="1"/></g></g></g><text fill="#3061F3" fill-opacity="1" font-family="Source Sans Pro,Source Sans Pro_MSFontService,sans-serif" font-style="normal" font-variant="normal" font-weight="400" font-stretch="normal" font-size="330" text-anchor="start" direction="ltr" writing-mode="lr-tb" unicode-bidi="normal" text-decoration="none" transform="matrix(1 0 0 1 1158.55 976)">RAMSES</text></g></g></svg>
